src/main/resources/icons/AllIcons/ide/notification/expandHover.svg

<!-- Copyright 2000-2021 JetBrains s.r.o. Use of this source code is governed by the Apache 2.0 license that can be found in the LICENSE file. -->
<svg xmlns="http://www.w3.org/2000/svg" width="16" height="16" viewBox="0 0 16 16">
  <path fill="#7F8B91" fill-opacity=".9" fill-rule="evenodd" d="M8.00416011,10.3876877 L12.697857,6.01074455 L14.008249,7.41596798 L8.05221566,12.970059 L8.0075123,13.0179974 L8.00416011,13.0148715 L7.9924877,13.0257562 L7.83682921,12.8588329 L1.99175097,7.40820924 L3.30214302,6.00298581 L8.00416011,10.3876877 Z"/>
</svg>

<svg xmlns="http://www.w3.org/2000/svg" width="16" height="16" viewBox="0 0 16 16"><rect id="frame" width="16" height="16" fill="none"/><path fill="#7F8B91" fill-opacity=".9" fill-rule="evenodd" d="M8.004 10.388l4.694-4.377 1.31 1.405-5.956 5.554-.044.048-.004-.003-.012.01-.155-.166-5.845-5.45 1.31-1.406 4.702 4.385z"/></svg>
